X:24401
H:
T:Devil in the Kitchen
C:
B:
O:Kevin Fraser
Z:Kevin Fraser
Q:1/4=132
K:HP
M:4/4
L:1/8
R:Strathspey
U: R = ///
U: r = //
U: V = !accent!
V:M gstem=up stem=down name="Melody" sname="Melody"
V:H gstem=up stem=down name="Harmony"
V:C gstem=up stem=down name="C-Harmony"
V:S gstem=up stem=down dyn=up stafflines=1 clef=perc middle=G name="Snare" sname="Snare"
V:B gstem=up stem=down clef=none dyn=up name="Bass"
V:T gstem=up stem=down clef=none dyn=up name="Tenor"
V:BB gstem=up stem=down name="Brass Bass" sname="ABCD-C" transpose=-1  octave=-1 clef=bass
V:BC gstem=up stem=down name="Brass Chord" sname="ABCD-D" transpose=-1
V:BD gstem=up stem=down name="Brass Chord 2" sname="ABCD-B" transpose=-1
V:P gstem=up stem=down name="Piano" octave=-1
%%landscape
%%score {M}
%%MIDI program 109 #bagpipes
%%MIDI vol 100
[V:M]a  |{ef}e>A {gGAGA}A2 {gef}e>A {g}f/e/d    |{gef}e>A {gGAGA}A2  {gf}g2 {a}f<a     |{ef}e>A {gGAGA}A2 {gef}e>A {g}f/e/d |{gBd}B>{e}A {g}G2    {gf}g2 {a}f<a   | $
w:   I | ete en henrarin hete en che e a | ete en henrarin  viri che I | ete en henrarin hete en che e a | hoto un hem viri che  
[V:M]z  |{ef}e>A {gGAGA}A2 {gef}e>A {g}f/e/d    |{gef}e>A {gGAGA}A2  {gf}g2 {a}f<a     |{ef}e>A {gGAGA}A2 {gef}e>A {g}f/e/d |{gBd}B>{e}A {g}G2    {gf}g2 {a}f>g   ||  $
w:    ete en henrarin hete en che e a | ete en henrarin  viri che I | ete en henrarin hete en che e a | hoto un hem viri che di
[V:M]z  | a>A     {gGAGA}A2 {gef}e>A {gGAGA}A2  |a>A      {gGAGA}A2  {gf}g2 {a}f>g     |a>A     {gGAGA}A2 {gef}e>A {g}f/e/d |{gBd}B>{e}A {g}G2    {gf}g2 {a}f>g   | $
w: I en henrarin hete en henrarin | I en henrarin  viri che di | I en henrarin hete en che e a | hoto un hem viri che di
[V:M]z  |a>A     {gGAGA}A2 {gef}e>A {gGAGA}A2   |a>A      {gGAGA}A2  {gf}g2 {a}f>g     |a/g/f   {gf}g>e   {gfg}f>d {gef}e>c |{g}B>c      {Gdc}d>e {gf}g2 {a}f>a   || $
w: I en henrarin hete en henrarin | I en henrarin  viri che di | I di ve viri e chete a hete o ho o tra e viri che I


